!!!!SEGMENT: pl-kk--kk-i-6--028-005_anonim--tempore-paschali-agnus-dei.krn
!!!cenid: 16xx:1003
!!!COM: Anonim
!!!COM-rismid: pe30004985
!!!CDT:
!!!CNT:
!!!OPR: Tempore Paschali
!!!OTL: Agnus Dei
!!!OMV: 005
!!!PDT:
!!!AGN: Sacred; Easter
!!!SMS-siglum: PL-Kk
!!!SMS-shelfmark: Kk.I.6
!!!SMS-shelfwork: 028-005 M
!!!SMS-variant:
!!!SMS-altvar:
!!!NIFC-rismid: 1001136067
!!!URL-scan: http://repozytorium.nifc.pl/skany/pl-kk-nut--i-6
!!!ONB-nifc: UWAGA: C (skan 0038-0042, s. 72-81), T (skan 0141-0148, s. 87-100), B (skan 0251-0258, s. 85-98) Części Mszy: 1. Kyrie, 2. Et in terra, 3. Patrem, 4. Sanctus, 5. Agnus Dei
!!!key:
**kern	**text	**kern	**text	**kern	**text
*part3	*part3	*part2	*part2	*part1	*part1
*staff3	*staff3	*staff2	*staff2	*staff1	*staff1
*Iempty	*	*Itenor	*	*Ivox	*
*I"Baſsus.	*	*I"Tenor.	*	*I"Cantus.	*
*I'B	*	*I'T	*	*I'S	*
*clefF4	*	*clefC4	*	*clefC4	*
*k[]	*	*k[]	*	*k[]	*
*C:	*	*C:	*	*C:	*
*M2/1	*	*M2/1	*	*M2/1	*
*met(C|)	*	*met(C|)	*	*met(C|)	*
=1-	=1-	=1-	=1-	=1-	=1-
*lig	*	*	*	*	*
*	*	*lig	*	*	*
*	*	*	*	*lig	*
1E	A-	1G	A-	1E	A-
1D	.	1A	.	1F	.
*Xlig	*	*Xlig	*	*Xlig	*
=2-	=2-	=2-	=2-	=2-	=2-
1C	.	1.c	.	1E	.
1GG	Gnus	.	.	1D	.
!	!	!LO:TX:t=P:problem:2\middle:global	!	!	!
.	.	2B\	.	.	.
=3-	=3-	=3-	=3-	=3-	=3-
1C	De-	2c\	-Gnus	1E	.
!	!	!LO:TX:t=P:problem:4/middle or right:global	!	!	!
.	.	4G/	De-	.	.
.	.	4A/	.	.	.
*	*	*	*	*lig	*
!	!	!LO:TX:t=P:problem:4\middle:global	!	!	!
1BB	.	4B\	.	1G	.
.	.	4c\	.	.	.
.	.	2d\	.	.	.
=4-	=4-	=4-	=4-	=4-	=4-
2.C/	.	2c\	.	1E	.
.	.	2G/	-i	.	.
!LO:TX:t=P:problem:4/middle or right:global	!	!	!	!	!
4BB/	.	.	.	.	.
*	*	*	*	*Xlig	*
!LO:SIC:v:custos:GG	!	!	!	!	!
1AA	.	1A	A-	1C,<	-gnus
!LO:LB:g=original	!	!	!	!	!
=5-	=5-	=5-	=5-	=5-	=5-
*	*	*	*	*lig	*
0GG	.	2B\	-gnus	1D	De-
.	.	4d\	De-	.	.
.	.	4c\	.	.	.
.	.	4B\	.	1E	.
.	.	4A/	.	.	.
!	!	!LO:SIC:v:custos:A	!	!	!
.	.	2B\	.	.	.
!	!	!LO:LB:g=original	!	!	!
*	*	*	*	*Xlig	*
=6-	=6-	=6-	=6-	=6-	=6-
*lig	*	*	*	*lig	*
1FF	.	1A	.	1F	.
1C	.	0G	.	1E	.
*Xlig	*	*	*	*Xlig	*
=7-	=7-	=7-	=7-	=7-	=7-
1GG	.	.	.	1D	.
!	!	!	!	!LO:SIC:v:custos:G	!
1C	-i	1G	-i	1E,<	-i
!	!	!	!	!LO:LB:g=original	!
=8-	=8-	=8-	=8-	=8-	=8-
0rD	.	1rA	.	1G	qui
.	.	2r	.	1A	.
.	.	2c\	qui	.	.
=9-	=9-	=9-	=9-	=9-	=9-
1rD	.	1d	.	1B	.
*	*	*lig	*	*lig	*
2rBB	.	1e	tol-	1c	tol-
2C/	qui	.	.	.	.
=10-	=10-	=10-	=10-	=10-	=10-
2D/	tol-	1d	-lis	1B	.
!LO:TX:t=P:problem:2\, 4\middle:global	!	!	!	!	!
2E\	-lis	.	.	.	.
*	*	*Xlig	*	*Xlig	*
*	*	*	*	*lig	*
2F\	pec-	2rc	.	1A	.
1F\	-ca-	2c\	qui	.	.
=11-	=11-	=11-	=11-	=11-	=11-
.	.	2d\	tol-	1G	.
2E\	-ta	2e\	-lis	.	.
*	*	*	*	*Xlig	*
2D/	mun-	2f\	pec-	1A	.
2F\	.	4d\	-ca-	.	.
.	.	4d\	-ta	.	.
=12-	=12-	=12-	=12-	=12-	=12-
1E	.	1e	mun-	1B,<	-lis
1AA	-di	1c	-di	1e	pec-
=13-	=13-	=13-	=13-	=13-	=13-
!LO:SIC:v:custos:A	!	!	!	!	!
0rD	.	0r	.	1d	-ca-
.	.	.	.	1B	-ta
!LO:LB:g=original	!	!	!	!	!
=14-	=14-	=14-	=14-	=14-	=14-
*	*	*	*	*lig	*
2r	.	1r	.	1c	mun-
2A\	pec-	.	.	.	.
2G\	-ca-	2r	.	1B	.
2E\	-ta	2e\	pec-	.	.
*	*	*	*	*Xlig	*
=15-	=15-	=15-	=15-	=15-	=15-
*	*	*	*	*lig	*
1F	mun-	2c\	-ca-	1A	.
.	.	1A	.	.	.
1E	.	.	.	1B	.
!	!	!LO:SIC:v:custos:A	!	!	!
!	!	!LO:TX:t=P:problem:# below	!	!	!
.	.	2G#X/	-ta	.	.
*	*	*	*	*Xlig	*
!	!	!LO:LB:g=original	!	!	!
=16-	=16-	=16-	=16-	=16-	=16-
2AA/	-di	4A/	mun-	1A	.
.	.	4B\	.	.	.
2F\	pec-	4c\	.	.	.
.	.	4d\	.	.	.
!	!	!	!	!LO:SIC:v:custos:E	!
1E	-ca-	2e\	-di	1G	-di
.	.	1e\	pec-	.	.
!	!	!	!	!LO:LB:g=original	!
=17-	=17-	=17-	=17-	=17-	=17-
*	*	*	*	*lig	*
1C	-ta	.	.	1E	Mi-
.	.	2.c\	-ca-	.	.
1D	.	.	.	1F	.
.	.	4c\	-ta	.	.
.	.	2B\	mun-	.	.
*	*	*	*	*Xlig	*
=18-	=18-	=18-	=18-	=18-	=18-
*	*	*	*	*lig	*
1.C	mun-	1c	-di	1E	.
.	.	0r	.	1D	.
2BB/	.	.	.	.	.
*	*	*	*	*Xlig	*
=19-	=19-	=19-	=19-	=19-	=19-
1C	.	.	.	1E	.
*	*	*	*	*lig	*
1GG	-di	2r	.	1B	.
.	.	1E/	mi-	.	.
=20-	=20-	=20-	=20-	=20-	=20-
!LO:SIC:v:custos:E	!	!	!	!	!
1rD	.	.	.	1c	.
.	.	2F/	-ſe-	.	.
*lig	*	*	*	*Xlig	*
*	*	*	*	*lig	*
!LO:LB:g=original	!	!	!	!	!
1E	Mi-	1Gny	-re-	1B	.
=21-	=21-	=21-	=21-	=21-	=21-
1F	.	1A	-re	1A	.
*Xlig	*	*lig	*	*Xlig	*
1E	-ſe-	1B	no-	1G	-ſe-
=22-	=22-	=22-	=22-	=22-	=22-
2.C/	-re-	1c	.	1E	-re-
4BB/	.	.	.	.	.
*	*	*Xlig	*	*	*
1AA	-re	1c	bis	1C,<	-re
=23-	=23-	=23-	=23-	=23-	=23-
*	*	*	*	*lig	*
*	*	*	*ij	*	*
1GG	no-	1B	mi-	1D	no-
2C,</	-bis	2G/	ſe-	1E	.
*	*ij	*	*	*	*
1AA/	mi-	1c\	-re-	.	.
*	*	*	*	*Xlig	*
=24-	=24-	=24-	=24-	=24-	=24-
.	.	.	.	1F	.
2BB/	-ſe-	2.B\	-re	.	.
2C/	-re-	.	.	1E	.
.	.	4A/	.	.	.
2AA/	-re	1A\	no-	.	.
=25-	=25-	=25-	=25-	=25-	=25-
1BB	no-	.	.	1D	.
!	!	!LO:TX:t=P:problem:# below	!	!	!
.	.	2G#X/	.	.	.
0AA;;l	-bis	0A;;l	-bis	0E;;l	-bis.
*	*Xij	*	*Xij	*	*
!LO:LB:g=original	!	!LO:LB:g=original	!	!LO:LB:g=original	!
=26-	=26-	=26-	=26-	=26-	=26-
*M2/1	*	*M2/1	*	*M2/1	*
*met(C|)	*	*met(C|)	*	*met(C|)	*
0r	.	00r	.	1e	A-
.	.	.	.	1B	-gnus
=27-	=27-	=27-	=27-	=27-	=27-
*	*	*	*	*lig	*
1A	A-	.	.	1c	De-
1E	-Gnus	.	.	1B	.
*	*	*	*	*Xlig	*
=28-	=28-	=28-	=28-	=28-	=28-
1F	De-	0r	.	1A	.
2E\	-i	.	.	1B,<	-i
2E\	qui	.	.	.	.
=29-	=29-	=29-	=29-	=29-	=29-
*	*	*	*	*lig	*
2G\	tol-	1r	.	1B	qui
4G\	-lis	.	.	.	.
4G\	pec-	.	.	.	.
1A	-ca-	1e	A-	1c	.
*	*	*	*	*Xlig	*
=30-	=30-	=30-	=30-	=30-	=30-
2.G\	-ta	1B	-Gnus	1d,<	.
4F\	.	.	.	.	.
*	*	*	*	*lig	*
4E\	.	1c	De-	1e	tol-
4D/	.	.	.	.	.
!LO:SIC:v:custos:D	!	!	!	!	!
2C/	.	.	.	.	.
!LO:LB:g=original	!	!	!	!	!
=31-	=31-	=31-	=31-	=31-	=31-
2.D/	mun-	2B\	-i	1d	.
.	.	2A/	qui	.	.
4E\	.	.	.	.	.
*	*	*	*	*Xlig	*
*	*	*	*	*lig	*
4F\	.	2A/	tol-	1c	.
4G\	.	.	.	.	.
2A\	.	4A/	-lis	.	.
.	.	4G/ny	pec-	.	.
=32-	=32-	=32-	=32-	=32-	=32-
1D	-di	2.F/	-ca-	1d	.
.	.	4G/	-ta	.	.
*	*	*	*	*Xlig	*
2r	.	2A/	mun-	1c	.
2A\	pec-	2A/	-di	.	.
=33-	=33-	=33-	=33-	=33-	=33-
2G\	-ca-	2r	.	1B,<	-lis
2.E\	-ta	2e\	pec-	.	.
.	.	2c\	-ca-	1e	pec-
4D/	.	.	.	.	.
!	!	!LO:SIC:v:custos:B	!	!	!
4E\	.	2c\	-ta	.	.
4F\	.	.	.	.	.
!	!	!LO:LB:g=original	!	!	!
=34-	=34-	=34-	=34-	=34-	=34-
0G	.	4B\	mun-	1d	-ca-
.	.	4A/	.	.	.
.	.	4B\	.	.	.
.	.	4c\	.	.	.
.	.	2d\	.	1B,<	-ta
.	.	2d\	-di	.	.
=35-	=35-	=35-	=35-	=35-	=35-
*	*	*	*	*lig	*
1.A	.	2rc	.	1c	mun-
.	.	2e\	pec-	.	.
.	.	2d\	-ca-	1B	.
1G\	Mun-	2B\	-ta	.	.
*	*	*	*	*Xlig	*
=36-	=36-	=36-	=36-	=36-	=36-
*	*	*	*	*lig	*
.	.	1c	mun-	1A	.
!LO:SIC:v:custos:G	!	!	!	!	!
!LO:TX:t=P:problem:# below	!	!	!	!	!
2F#X\	.	.	.	.	.
!LO:LB:g=original	!	!	!	!	!
!	!	!	!	!LO:SIC:v:custos:A	!
2G,<\	-di	1B	-di	1B	.
2G\	pec-	.	.	.	.
!	!	!	!	!LO:LB:g=original	!
*	*	*	*	*Xlig	*
=37-	=37-	=37-	=37-	=37-	=37-
2F\ny	-ca-	2r	.	1A	.
2D/	-ta	2d\	pec-	.	.
2E\	mun-	2B\	-ca-	1G,<	-di
4E,<\	-di	2G/	-ta	.	.
4E\	pec-	.	.	.	.
=38-	=38-	=38-	=38-	=38-	=38-
2C/	-ca-	4A/	mun-	1E	do-
.	.	4B\	.	.	.
2AA/	-ta	1c	.	.	.
*	*	*	*	*lig	*
1D	mun-	.	.	1F	.
.	.	2B\	.	.	.
=39-	=39-	=39-	=39-	=39-	=39-
1.C	.	4c\	.	1E	.
.	.	4d\	.	.	.
.	.	4e\	.	.	.
.	.	4c\	.	.	.
*	*	*	*	*Xlig	*
.	.	1d	.	1D	.
2BB/	.	.	.	.	.
=40-	=40-	=40-	=40-	=40-	=40-
!	!	!LO:SIC:v:custos:E	!	!	!
1C	-di	1c	-di	1E	.
*	*	*	*	*lig	*
!	!	!LO:PB:g=original	!	!	!
0r	.	2rF	.	1B	.
.	.	1E/	do-	.	.
=41-	=41-	=41-	=41-	=41-	=41-
.	.	.	.	1c	.
!	!	!LO:TX:t=P:problem:# below	!	!	!
.	.	2F#X/	-na	.	.
*lig	*	*	*	*Xlig	*
1E	do-	1G	no-	1B	.
=42-	=42-	=42-	=42-	=42-	=42-
!LO:SIC:v:custos:E	!	!	!	!	!
1F	.	1A	-bis	1A	.
!LO:LB:g=original	!	!	!	!	!
*Xlig	*	*lig	*	*	*
1E	-na	1B	pa-	1G,<	-na
=43-	=43-	=43-	=43-	=43-	=43-
2.C/	no-	1c	.	1E	no-
4BB/	.	.	.	.	.
*	*	*Xlig	*	*	*
1AA	-bis	2c\	-cem	1C	-bis
.	.	1c\	do-	.	.
=44-	=44-	=44-	=44-	=44-	=44-
*	*	*	*	*lig	*
1D	pa-	.	.	1D	pa-
.	.	2B\	-na	.	.
1C	-cem	2.c\	no-	1E	.
.	.	4B\	.	.	.
*	*	*	*	*Xlig	*
=45-	=45-	=45-	=45-	=45-	=45-
*	*	*	*	*lig	*
4FF/	pa-	2A/	.	1F	.
4GG/	.	.	.	.	.
4AA/	.	2A/	-bis	.	.
4BB/	.	.	.	.	.
1C	.	0G	pa-	1E	.
*	*	*	*	*Xlig	*
=46-	=46-	=46-	=46-	=46-	=46-
1GG	.	.	.	1D	cem.
!	!	!LO:SIC:v:custos:c	!	!	!
1C	-cem	1G	-cem	000E;;l	.
!	!	!LO:LB:g=original	!	!	!
=47-	=47-	=47-	=47-	=47-	=47-
2rBB	.	2r	.	.	.
*	*ij	*	*	*	*
1AA	do-	1c	do-	.	.
2E\	-na	2B\	-na	.	.
=48-	=48-	=48-	=48-	=48-	=48-
2AA/	no-	2c\	no-	.	.
2GG/	-bis	1B	-bis	.	.
1AA	pa-	.	.	.	.
.	.	1A\	.	.	.
=49-	=49-	=49-	=49-	=49-	=49-
0.EE;;l	-cem	.	.	.	.
*	*Xij	*	*	*	*
.	.	4G/	pa-	.	.
!	!	!LO:TX:t=P:problem:# below	!	!	!
.	.	4F#X/	-cem.	.	.
.	.	0G;;l	.	.	.
=-	=-	=-	=-	=-	=-
*-	*-	*-	*-	*-	*-
!!!system-decoration: [(s1,s2,s3)]
!!!RDF**kern: l = terminal long
!!!RDF**kern: > = above
!!!RDF**kern: < = below
!!!EED: Antoni Szymański
!!!EST: 2021-03-22
!!!AIN: 1 empty 1 tenor 1 vox
!!!ENC: Kamil Watkowski
!!!END: 2021-03-08
